X: 41373
T: Tuttle's
R: reel
M: 4/4
K: Adorian
EAAB cBcd|e2 dg ea a2|EAAB (3cde ge|dBGB cABG|
EAAB cBcd|e2 dg ea ab|c'abg afge|1 dBGB cABG:|2 dBGB cA A2||
|:a2 af g2 gd|eaaf gedg|a2 af gage|dBgB BA A2|
a2 af g2 gd|eaag a2 ab|c'abg afge|1 dBGB cA A2:|2 dBGB cABG||

